system_files/shared/usr/share/pixmaps/ublue-update.svg

<?xml version="1.0" encoding="UTF-8" standalone="no"?>
<svg
   width="380"
   height="380"
   viewBox="0 0 380 380"
   fill="none"
   version="1.1"
   id="svg11"
   sodipodi:docname="ublue-update.svg"
   inkscape:version="1.4 (e7c3feb100, 2024-10-09)"
   xml:space="preserve"
   xmlns:inkscape="http://www.inkscape.org/namespaces/inkscape"
   xmlns:sodipodi="http://sodipodi.sourceforge.net/DTD/sodipodi-0.dtd"
   xmlns="http://www.w3.org/2000/svg"
   xmlns:svg="http://www.w3.org/2000/svg"><sodipodi:namedview
     id="namedview11"
     pagecolor="#ffffff"
     bordercolor="#000000"
     borderopacity="0.25"
     inkscape:showpageshadow="2"
     inkscape:pageopacity="0.0"
     inkscape:pagecheckerboard="0"
     inkscape:deskcolor="#d1d1d1"
     inkscape:zoom="1.4034636"
     inkscape:cx="115.07245"
     inkscape:cy="173.14307"
     inkscape:window-width="1920"
     inkscape:window-height="1008"
     inkscape:window-x="0"
     inkscape:window-y="0"
     inkscape:window-maximized="1"
     inkscape:current-layer="svg11" /><path
     d="M 160,338 H 336 V 72 C 336,55.4315 322.569,42 306,42 H 70 C 53.4315,42 40,55.4315 40,72 v 146 c 0,66.274 53.7258,120 120,120 z"
     fill="url(#paint0_linear_1268_533)"
     id="path1"
     style="fill:url(#paint0_linear_1268_533);filter:url(#filter17)" /><defs
     id="defs11"><filter
       id="filter0_b_1268_533"
       x="15.7"
       y="15.7"
       width="263.60001"
       height="263.60001"
       filterUnits="userSpaceOnUse"
       color-interpolation-filters="sRGB"><feFlood
         flood-opacity="0"
         result="BackgroundImageFix"
         id="feFlood6" /><feGaussianBlur
         in="BackgroundImageFix"
         stdDeviation="19.65"
         id="feGaussianBlur6" /><feComposite
         in2="SourceAlpha"
         operator="in"
         result="effect1_backgroundBlur_1268_533"
         id="feComposite6" /><feBlend
         mode="normal"
         in="SourceGraphic"
         in2="effect1_backgroundBlur_1268_533"
         result="shape"
         id="feBlend6" /></filter><filter
       id="filter1_b_1268_533"
       x="200"
       y="15"
       width="90"
       height="265"
       filterUnits="userSpaceOnUse"
       color-interpolation-filters="sRGB"><feFlood
         flood-opacity="0"
         result="BackgroundImageFix"
         id="feFlood7" /><feGaussianBlur
         in="BackgroundImageFix"
         stdDeviation="20"
         id="feGaussianBlur7" /><feComposite
         in2="SourceAlpha"
         operator="in"
         result="effect1_backgroundBlur_1268_533"
         id="feComposite7" /><feBlend
         mode="normal"
         in="SourceGraphic"
         in2="effect1_backgroundBlur_1268_533"
         result="shape"
         id="feBlend7" /></filter><filter
       id="filter2_b_1268_533"
       x="210"
       y="15"
       width="90"
       height="265"
       filterUnits="userSpaceOnUse"
       color-interpolation-filters="sRGB"><feFlood
         flood-opacity="0"
         result="BackgroundImageFix"
         id="feFlood8" /><feGaussianBlur
         in="BackgroundImageFix"
         stdDeviation="20"
         id="feGaussianBlur8" /><feComposite
         in2="SourceAlpha"
         operator="in"
         result="effect1_backgroundBlur_1268_533"
         id="feComposite8" /><feBlend
         mode="normal"
         in="SourceGraphic"
         in2="effect1_backgroundBlur_1268_533"
         result="shape"
         id="feBlend8" /></filter><filter
       id="filter3_b_1268_533"
       x="67.000198"
       y="15"
       width="213"
       height="265"
       filterUnits="userSpaceOnUse"
       color-interpolation-filters="sRGB"><feFlood
         flood-opacity="0"
         result="BackgroundImageFix"
         id="feFlood9" /><feGaussianBlur
         in="BackgroundImageFix"
         stdDeviation="20"
         id="feGaussianBlur9" /><feComposite
         in2="SourceAlpha"
         operator="in"
         result="effect1_backgroundBlur_1268_533"
         id="feComposite9" /><feBlend
         mode="normal"
         in="SourceGraphic"
         in2="effect1_backgroundBlur_1268_533"
         result="shape"
         id="feBlend9" /></filter><filter
       id="filter4_b_1268_533"
       x="41.000198"
       y="15"
       width="239"
       height="265"
       filterUnits="userSpaceOnUse"
       color-interpolation-filters="sRGB"><feFlood
         flood-opacity="0"
         result="BackgroundImageFix"
         id="feFlood10" /><feGaussianBlur
         in="BackgroundImageFix"
         stdDeviation="20"
         id="feGaussianBlur10" /><feComposite
         in2="SourceAlpha"
         operator="in"
         result="effect1_backgroundBlur_1268_533"
         id="feComposite10" /><feBlend
         mode="normal"
         in="SourceGraphic"
         in2="effect1_backgroundBlur_1268_533"
         result="shape"
         id="feBlend10" /></filter><linearGradient
       id="paint0_linear_1268_533"
       x1="279"
       y1="296"
       x2="-39.5205"
       y2="51.480999"
       gradientUnits="userSpaceOnUse"
       gradientTransform="translate(40,42)"><stop
         offset="0.18594"
         stop-color="#3550EC"
         id="stop10" /><stop
         offset="0.795405"
         stop-color="#252B4B"
         id="stop11" /></linearGradient><filter
       style="color-interpolation-filters:sRGB;"
       inkscape:label="Drop Shadow"
       id="filter17"
       x="0"
       y="0"
       width="1"
       height="1.0371622"><feFlood
         result="flood"
         in="SourceGraphic"
         flood-opacity="0.286275"
         flood-color="rgb(0,0,0)"
         id="feFlood16" /><feGaussianBlur
         result="blur"
         in="SourceGraphic"
         stdDeviation="0.000000"
         id="feGaussianBlur16" /><feOffset
         result="offset"
         in="blur"
         dx="0.000000"
         dy="6.000000"
         id="feOffset16" /><feComposite
         result="comp1"
         operator="in"
         in="flood"
         in2="offset"
         id="feComposite16" /><feComposite
         result="fbSourceGraphic"
         operator="over"
         in="SourceGraphic"
         in2="comp1"
         id="feComposite17" /><feColorMatrix
         result="fbSourceGraphicAlpha"
         in="fbSourceGraphic"
         values="0 0 0 -1 0 0 0 0 -1 0 0 0 0 -1 0 0 0 0 1 0"
         id="feColorMatrix4" /><feFlood
         id="feFlood4"
         result="flood"
         in="fbSourceGraphic"
         flood-opacity="0.286275"
         flood-color="rgb(255,255,255)" /><feGaussianBlur
         id="feGaussianBlur4"
         result="blur"
         in="fbSourceGraphic"
         stdDeviation="0.000000" /><feOffset
         id="feOffset4"
         result="offset"
         in="blur"
         dx="0.000000"
         dy="5.000000" /><feComposite
         id="feComposite4"
         result="comp1"
         operator="out"
         in="flood"
         in2="offset" /><feComposite
         id="feComposite5"
         result="comp2"
         operator="atop"
         in="comp1"
         in2="fbSourceGraphic" /></filter><filter
       style="color-interpolation-filters:sRGB;"
       inkscape:label="Drop Shadow"
       id="filter23"
       x="0"
       y="0"
       width="1.0166016"
       height="1.016276"><feFlood
         result="flood"
         in="SourceGraphic"
         flood-opacity="0.286275"
         flood-color="rgb(255,255,255)"
         id="feFlood22" /><feGaussianBlur
         result="blur"
         in="SourceGraphic"
         stdDeviation="0.000000"
         id="feGaussianBlur22" /><feOffset
         result="offset"
         in="blur"
         dx="2.000000"
         dy="2.000000"
         id="feOffset22" /><feComposite
         result="comp1"
         operator="in"
         in="flood"
         in2="offset"
         id="feComposite22" /><feComposite
         result="comp2"
         operator="over"
         in="SourceGraphic"
         in2="comp1"
         id="feComposite23" /></filter></defs><g
     style="opacity:0.5;fill:#999999;fill-opacity:1"
     id="g6"
     transform="matrix(14.163934,0,0,14.163934,95.352066,95.352066)"><g
       id="g3"
       stroke-width="0"
       style="fill:#999999;fill-opacity:1" /><g
       id="g4"
       stroke-linecap="round"
       stroke-linejoin="round"
       style="fill:#999999;fill-opacity:1" /><g
       id="g5"
       style="fill:#999999;fill-opacity:1"><path
         d="m 12.80469,8.25 q 0,0.03906 -0.008,0.05469 -0.5,2.093751 -2.09376,3.394532 Q 9.10937,13 6.96875,13 5.82812,13 4.76172,12.570312 3.69531,12.140625 2.85938,11.34375 L 1.851562,12.351563 Q 1.703125,12.5 1.5,12.5 1.296875,12.5 1.148437,12.351563 1,12.203125 1,12 V 8.5 Q 1,8.296875 1.148437,8.148438 1.296875,8 1.5,8 H 5 Q 5.20312,8 5.35156,8.148438 5.5,8.296875 5.5,8.5 5.5,8.703125 5.35156,8.851562 L 4.28125,9.921875 Q 4.83594,10.4375 5.53906,10.71875 6.24219,11 7,11 8.04687,11 8.95313,10.492187 9.85937,9.984375 10.40625,9.09375 10.49215,8.960938 10.82031,8.179688 10.88281,8 11.05469,8 h 1.5 q 0.10156,0 0.17578,0.07422 0.0742,0.07422 0.0742,0.175781 z M 13,2 V 5.5 Q 13,5.703125 12.85156,5.851562 12.70313,6 12.5,6 H 9 Q 8.79687,6 8.64844,5.851562 8.5,5.703125 8.5,5.5 8.5,5.296875 8.64844,5.148438 L 9.72656,4.070312 Q 8.57031,3 7,3 5.95313,3 5.04688,3.507813 4.14063,4.015625 3.59375,4.90625 3.50785,5.039062 3.17969,5.820312 3.11719,6 2.94531,6 H 1.390625 Q 1.289062,6 1.214844,5.92578 1.140624,5.85156 1.140624,5.749999 V 5.695309 Q 1.648438,3.601562 3.25,2.300781 4.85156,1 7,1 8.14063,1 9.21875,1.433594 10.29687,1.867187 11.13281,2.65625 L 12.14844,1.648437 Q 12.29688,1.5 12.5,1.5 12.70313,1.5 12.85156,1.648437 13,1.796875 13,2 Z"
         id="path4"
         style="fill:#999999;fill-opacity:1" /></g></g><g
     style="fill:#ebedf7;fill-opacity:1"
     id="g1"
     transform="matrix(14.163934,0,0,14.163934,90.852462,90.852462)"><g
       id="SVGRepo_bgCarrier"
       stroke-width="0"
       style="fill:#ebedf7;fill-opacity:1" /><g
       id="SVGRepo_tracerCarrier"
       stroke-linecap="round"
       stroke-linejoin="round"
       style="fill:#ebedf7;fill-opacity:1" /><g
       id="SVGRepo_iconCarrier"
       style="fill:#ebedf7;fill-opacity:1"><path
         d="m 12.80469,8.25 q 0,0.03906 -0.008,0.05469 -0.5,2.093751 -2.09376,3.394532 Q 9.10937,13 6.96875,13 5.82812,13 4.76172,12.570312 3.69531,12.140625 2.85938,11.34375 L 1.851562,12.351563 Q 1.703125,12.5 1.5,12.5 1.296875,12.5 1.148437,12.351563 1,12.203125 1,12 V 8.5 Q 1,8.296875 1.148437,8.148438 1.296875,8 1.5,8 H 5 Q 5.20312,8 5.35156,8.148438 5.5,8.296875 5.5,8.5 5.5,8.703125 5.35156,8.851562 L 4.28125,9.921875 Q 4.83594,10.4375 5.53906,10.71875 6.24219,11 7,11 8.04687,11 8.95313,10.492187 9.85937,9.984375 10.40625,9.09375 10.49215,8.960938 10.82031,8.179688 10.88281,8 11.05469,8 h 1.5 q 0.10156,0 0.17578,0.07422 0.0742,0.07422 0.0742,0.175781 z M 13,2 V 5.5 Q 13,5.703125 12.85156,5.851562 12.70313,6 12.5,6 H 9 Q 8.79687,6 8.64844,5.851562 8.5,5.703125 8.5,5.5 8.5,5.296875 8.64844,5.148438 L 9.72656,4.070312 Q 8.57031,3 7,3 5.95313,3 5.04688,3.507813 4.14063,4.015625 3.59375,4.90625 3.50785,5.039062 3.17969,5.820312 3.11719,6 2.94531,6 H 1.390625 Q 1.289062,6 1.214844,5.92578 1.140624,5.85156 1.140624,5.749999 V 5.695309 Q 1.648438,3.601562 3.25,2.300781 4.85156,1 7,1 8.14063,1 9.21875,1.433594 10.29687,1.867187 11.13281,2.65625 L 12.14844,1.648437 Q 12.29688,1.5 12.5,1.5 12.70313,1.5 12.85156,1.648437 13,1.796875 13,2 Z"
         id="path1-3"
         style="fill:#ebedf7;fill-opacity:1" /></g></g></svg>

<svg xmlns="http://www.w3.org/2000/svg" xml:space="preserve" width="380" height="380" fill="none" viewBox="0 0 380 380"><path fill="url(#a)" d="M160 338h176V72c0-16.568-13.431-30-30-30H70c-16.568 0-30 13.432-30 30v146c0 66.274 53.726 120 120 120" style="fill:url(#a);filter:url(#b)"/><defs><linearGradient id="a" x1="279" x2="-39.52" y1="296" y2="51.481" gradientTransform="translate(40 42)" gradientUnits="userSpaceOnUse"><stop offset=".186" stop-color="#3550EC"/><stop offset=".795" stop-color="#252B4B"/></linearGradient><filter id="b" width="1" height="1.037" x="0" y="0" style="color-interpolation-filters:sRGB"><feFlood flood-color="#000" flood-opacity=".286" result="flood"/><feGaussianBlur in="SourceGraphic" result="blur"/><feOffset dy="6" in="blur" result="offset"/><feComposite in="flood" in2="offset" operator="in" result="comp1"/><feComposite in="SourceGraphic" in2="comp1" result="fbSourceGraphic"/><feColorMatrix in="fbSourceGraphic" result="fbSourceGraphicAlpha" values="0 0 0 -1 0 0 0 0 -1 0 0 0 0 -1 0 0 0 0 1 0"/><feFlood flood-color="#FFF" flood-opacity=".286" result="flood"/><feGaussianBlur in="fbSourceGraphic" result="blur"/><feOffset dy="5" in="blur" result="offset"/><feComposite in="flood" in2="offset" operator="out" result="comp1"/><feComposite in="comp1" in2="fbSourceGraphic" operator="atop" result="comp2"/></filter></defs><g style="opacity:.5;fill:#999;fill-opacity:1"><path d="M12.805 8.25q0 .04-.008.055-.5 2.093-2.094 3.394T6.969 13q-1.14 0-2.207-.43t-1.903-1.226l-1.007 1.008q-.149.148-.352.148t-.352-.148T1 12V8.5q0-.203.148-.352Q1.297 8 1.5 8H5q.203 0 .352.148.148.149.148.352t-.148.352l-1.07 1.07q.554.515 1.257.797Q6.242 11 7 11q1.047 0 1.953-.508t1.453-1.398q.086-.133.414-.914.063-.18.235-.18h1.5q.101 0 .175.074.075.074.075.176M13 2v3.5q0 .203-.148.352Q12.703 6 12.5 6H9q-.203 0-.352-.148Q8.5 5.703 8.5 5.5t.148-.352L9.727 4.07Q8.57 3 7 3q-1.047 0-1.953.508T3.594 4.906q-.086.133-.414.914-.063.18-.235.18H1.391q-.102 0-.176-.074T1.14 5.75v-.055q.507-2.093 2.109-3.394T7 1q1.14 0 2.219.434 1.078.433 1.914 1.222l1.015-1.008q.149-.148.352-.148t.352.148T13 2" style="fill:#999;fill-opacity:1" transform="translate(95.352 95.352)scale(14.16393)"/></g><path d="M12.805 8.25q0 .04-.008.055-.5 2.093-2.094 3.394T6.969 13q-1.14 0-2.207-.43t-1.903-1.226l-1.007 1.008q-.149.148-.352.148t-.352-.148T1 12V8.5q0-.203.148-.352Q1.297 8 1.5 8H5q.203 0 .352.148.148.149.148.352t-.148.352l-1.07 1.07q.554.515 1.257.797Q6.242 11 7 11q1.047 0 1.953-.508t1.453-1.398q.086-.133.414-.914.063-.18.235-.18h1.5q.101 0 .175.074.075.074.075.176M13 2v3.5q0 .203-.148.352Q12.703 6 12.5 6H9q-.203 0-.352-.148Q8.5 5.703 8.5 5.5t.148-.352L9.727 4.07Q8.57 3 7 3q-1.047 0-1.953.508T3.594 4.906q-.086.133-.414.914-.063.18-.235.18H1.391q-.102 0-.176-.074T1.14 5.75v-.055q.507-2.093 2.109-3.394T7 1q1.14 0 2.219.434 1.078.433 1.914 1.222l1.015-1.008q.149-.148.352-.148t.352.148T13 2" style="fill:#ebedf7;fill-opacity:1" transform="translate(90.852 90.852)scale(14.16393)"/></svg>
